dataset/shotcut/icon.svg

<?xml version="1.0" encoding="UTF-8" standalone="no"?>
<svg
   viewBox="0 0 128 128"
   style="display:inline;enable-background:new"
   version="1.0"
   id="svg11300"
   height="128"
   width="128"
   xml:space="preserve"
   xmlns:xlink="http://www.w3.org/1999/xlink"
   xmlns="http://www.w3.org/2000/svg"
   xmlns:svg="http://www.w3.org/2000/svg"
   xmlns:rdf="http://www.w3.org/1999/02/22-rdf-syntax-ns#"
   xmlns:cc="http://creativecommons.org/ns#"
   xmlns:dc="http://purl.org/dc/elements/1.1/"><title
     id="title4162">Adwaita Icon Template</title><defs
     id="defs3"><linearGradient
       id="linearGradient14"><stop
         style="stop-color:#323b3e;stop-opacity:1;"
         offset="0.88056117"
         id="stop12" /><stop
         style="stop-color:#6c7e83;stop-opacity:1;"
         offset="0.95425063"
         id="stop13" /><stop
         style="stop-color:#323b3e;stop-opacity:1;"
         offset="1"
         id="stop14" /></linearGradient><linearGradient
       id="linearGradient8"><stop
         style="stop-color:#323b3e;stop-opacity:1;"
         offset="0"
         id="stop8" /><stop
         style="stop-color:#6c7e83;stop-opacity:1;"
         offset="0.11726205"
         id="stop10" /><stop
         style="stop-color:#323b3e;stop-opacity:1;"
         offset="0.27007544"
         id="stop9" /></linearGradient><linearGradient
       xlink:href="#linearGradient8"
       id="linearGradient9"
       x1="12"
       y1="66"
       x2="41.566406"
       y2="66"
       gradientUnits="userSpaceOnUse" /><linearGradient
       xlink:href="#linearGradient14"
       id="linearGradient12"
       x1="45.566406"
       y1="66"
       x2="116"
       y2="66"
       gradientUnits="userSpaceOnUse" /></defs><metadata
     id="metadata4"><rdf:RDF><cc:Work
         rdf:about=""><dc:format>image/svg+xml</dc:format><dc:type
           rdf:resource="http://purl.org/dc/dcmitype/StillImage" /><dc:creator><cc:Agent><dc:title>GNOME Design Team</dc:title></cc:Agent></dc:creator><dc:source /><cc:license
           rdf:resource="http://creativecommons.org/licenses/by-sa/4.0/" /><dc:title>Adwaita Icon Template</dc:title><dc:subject><rdf:Bag /></dc:subject><dc:date /><dc:rights><cc:Agent><dc:title /></cc:Agent></dc:rights><dc:publisher><cc:Agent><dc:title /></cc:Agent></dc:publisher><dc:identifier /><dc:relation /><dc:language /><dc:coverage /><dc:description /><dc:contributor><cc:Agent><dc:title /></cc:Agent></dc:contributor></cc:Work><cc:License
         rdf:about="http://creativecommons.org/licenses/by-sa/4.0/"><cc:permits
           rdf:resource="http://creativecommons.org/ns#Reproduction" /><cc:permits
           rdf:resource="http://creativecommons.org/ns#Distribution" /><cc:requires
           rdf:resource="http://creativecommons.org/ns#Notice" /><cc:requires
           rdf:resource="http://creativecommons.org/ns#Attribution" /><cc:permits
           rdf:resource="http://creativecommons.org/ns#DerivativeWorks" /><cc:requires
           rdf:resource="http://creativecommons.org/ns#ShareAlike" /></cc:License></rdf:RDF></metadata><path
     id="path8"
     style="display:inline;fill:url(#linearGradient12);fill-opacity:1;stroke:none;stroke-width:0.25;stroke-linecap:butt;stroke-linejoin:miter;stroke-miterlimit:4;stroke-dasharray:none;stroke-dashoffset:0;stroke-opacity:1;marker:none;marker-start:none;marker-mid:none;marker-end:none;paint-order:normal;enable-background:new"
     d="M 45.566406,16 V 116 H 108 c 4.432,0 8,-3.568 8,-8 V 24 c 0,-4.432 -3.568,-8 -8,-8 z" /><path
     id="path7"
     style="display:inline;fill:url(#linearGradient9);fill-opacity:1;stroke:none;stroke-width:0.25;stroke-linecap:butt;stroke-linejoin:miter;stroke-miterlimit:4;stroke-dasharray:none;stroke-dashoffset:0;stroke-opacity:1;marker:none;marker-start:none;marker-mid:none;marker-end:none;paint-order:normal;enable-background:new"
     d="M 20,116 H 41.566406 V 16 H 20 c -4.432,0 -8,3.568 -8,8 v 84 c 0,4.432 3.568,8 8,8 z" /><path
     id="rect1711"
     style="display:inline;fill:#115c77;fill-opacity:1;stroke:none;stroke-width:0.25;stroke-linecap:butt;stroke-linejoin:miter;stroke-miterlimit:4;stroke-dasharray:none;stroke-dashoffset:0;stroke-opacity:1;marker:none;marker-start:none;marker-mid:none;marker-end:none;paint-order:normal;enable-background:new"
     d="M 45.566406 12 L 45.566406 112 L 108 112 C 112.432 112 116 108.432 116 104 L 116 20 C 116 15.568 112.432 12 108 12 L 45.566406 12 z " /><path
     id="path3"
     style="display:inline;fill:#115c77;fill-opacity:1;stroke:none;stroke-width:0.25;stroke-linecap:butt;stroke-linejoin:miter;stroke-miterlimit:4;stroke-dasharray:none;stroke-dashoffset:0;stroke-opacity:1;marker:none;marker-start:none;marker-mid:none;marker-end:none;paint-order:normal;enable-background:new"
     d="M 20 112 L 41.566406 112 L 41.566406 12 L 20 12 C 15.568 12 12 15.568 12 20 L 12 104 C 12 108.432 15.568 112 20 112 z " /><path
     id="path5"
     style="display:inline;fill:#000000;fill-opacity:1;stroke:none;stroke-width:0.25;stroke-linecap:butt;stroke-linejoin:miter;stroke-miterlimit:4;stroke-dasharray:none;stroke-dashoffset:0;stroke-opacity:1;marker:none;marker-start:none;marker-mid:none;marker-end:none;paint-order:normal;enable-background:new"
     d="M 20 12 C 17.02715 12 14.443753 13.605357 13.064453 16 L 38 16 L 38 108 L 13.064453 108 C 14.443753 110.39464 17.02715 112 20 112 L 41.566406 112 L 41.566406 12 L 20 12 z " /><path
     id="path6"
     style="display:inline;fill:#000000;fill-opacity:1;stroke:none;stroke-width:0.25;stroke-linecap:butt;stroke-linejoin:miter;stroke-miterlimit:4;stroke-dasharray:none;stroke-dashoffset:0;stroke-opacity:1;marker:none;marker-start:none;marker-mid:none;marker-end:none;paint-order:normal;enable-background:new"
     d="M 45.566406 12 L 45.566406 112 L 108 112 C 110.97285 112 113.55625 110.39464 114.93555 108 L 49.132812 108 L 49.132812 16 L 114.93555 16 C 113.55625 13.605357 110.97285 12 108 12 L 45.566406 12 z " /></svg>

<svg xmlns="http://www.w3.org/2000/svg" xmlns:xlink="http://www.w3.org/1999/xlink" xml:space="preserve" width="128" height="128" style="display:inline" viewBox="0 0 128 128"><title>Adwaita Icon Template</title><defs><linearGradient id="b"><stop offset=".881" style="stop-color:#323b3e;stop-opacity:1"/><stop offset=".954" style="stop-color:#6c7e83;stop-opacity:1"/><stop offset="1" style="stop-color:#323b3e;stop-opacity:1"/></linearGradient><linearGradient id="a"><stop offset="0" style="stop-color:#323b3e;stop-opacity:1"/><stop offset=".117" style="stop-color:#6c7e83;stop-opacity:1"/><stop offset=".27" style="stop-color:#323b3e;stop-opacity:1"/></linearGradient><linearGradient xlink:href="#a" id="d" x1="12" x2="41.566" y1="66" y2="66" gradientUnits="userSpaceOnUse"/><linearGradient xlink:href="#b" id="c" x1="45.566" x2="116" y1="66" y2="66" gradientUnits="userSpaceOnUse"/></defs><path d="M45.566 16v100H108c4.432 0 8-3.568 8-8V24c0-4.432-3.568-8-8-8z" style="display:inline;fill:url(#c);fill-opacity:1;stroke:none;stroke-width:.25;stroke-linecap:butt;stroke-linejoin:miter;stroke-miterlimit:4;stroke-dasharray:none;stroke-dashoffset:0;stroke-opacity:1;marker:none;marker-start:none;marker-mid:none;marker-end:none;paint-order:normal"/><path d="M20 116h21.566V16H20c-4.432 0-8 3.568-8 8v84c0 4.432 3.568 8 8 8" style="display:inline;fill:url(#d);fill-opacity:1;stroke:none;stroke-width:.25;stroke-linecap:butt;stroke-linejoin:miter;stroke-miterlimit:4;stroke-dasharray:none;stroke-dashoffset:0;stroke-opacity:1;marker:none;marker-start:none;marker-mid:none;marker-end:none;paint-order:normal"/><path d="M45.566 12v100H108c4.432 0 8-3.568 8-8V20c0-4.432-3.568-8-8-8z" style="display:inline;fill:#115c77;fill-opacity:1;stroke:none;stroke-width:.25;stroke-linecap:butt;stroke-linejoin:miter;stroke-miterlimit:4;stroke-dasharray:none;stroke-dashoffset:0;stroke-opacity:1;marker:none;marker-start:none;marker-mid:none;marker-end:none;paint-order:normal"/><path d="M20 112h21.566V12H20c-4.432 0-8 3.568-8 8v84c0 4.432 3.568 8 8 8" style="display:inline;fill:#115c77;fill-opacity:1;stroke:none;stroke-width:.25;stroke-linecap:butt;stroke-linejoin:miter;stroke-miterlimit:4;stroke-dasharray:none;stroke-dashoffset:0;stroke-opacity:1;marker:none;marker-start:none;marker-mid:none;marker-end:none;paint-order:normal"/><path d="M20 12a7.98 7.98 0 0 0-6.936 4H38v92H13.064A7.98 7.98 0 0 0 20 112h21.566V12z" style="display:inline;fill:#000;fill-opacity:1;stroke:none;stroke-width:.25;stroke-linecap:butt;stroke-linejoin:miter;stroke-miterlimit:4;stroke-dasharray:none;stroke-dashoffset:0;stroke-opacity:1;marker:none;marker-start:none;marker-mid:none;marker-end:none;paint-order:normal"/><path d="M45.566 12v100H108a7.98 7.98 0 0 0 6.936-4H49.133V16h65.803A7.98 7.98 0 0 0 108 12z" style="display:inline;fill:#000;fill-opacity:1;stroke:none;stroke-width:.25;stroke-linecap:butt;stroke-linejoin:miter;stroke-miterlimit:4;stroke-dasharray:none;stroke-dashoffset:0;stroke-opacity:1;marker:none;marker-start:none;marker-mid:none;marker-end:none;paint-order:normal"/></svg>
